X:1
T: The Dorset Ring Dance
N:
C:aka "Guilderoy's Reel"
S:tune is "Gilderoy"
A:
O:
R:
M:4/4
K:Am
I:speed 200
%W:
% voice 1 (1 lines, 54 notes)
K:Am
M:4/4
L:1/16
E4 |A4 A2 B2 c2 B2 c2 d2 |e2 f2 e2 c2 d4 c2 d2 |e2 d2 c2 B2 A2 B2 c2 A2 |B2 ^G2 E4 E4 E2 G2 |A2 ^G2 A2 B2 c2 B2 c2 d2 |e2 f2 e2 c2 d4 c2 d2 |e2 a2 ^g2 a2 e2 d2 c2 B2 |A8 A4 |
%W:
% voice 1 (1 lines, 55 notes)
A4 A2 B2 c2 B2 c2 d2 |e2 f2 e2 c2 d4 c2 d2 |e2 d2 c2 B2 A2 B2 c2 A2 |B2 ^G2 E4 E4 E2 G2 |A2 ^G2 A2 B2 c2 B2 c2 d2 |e2 f2 e2 c2 d4 c2 d2 |e2 a2 ^g2 a2 e2 d2 c2 B2 |A8 A4 e2 ^f2 |
%W:
% voice 1 (1 lines, 52 notes)
g6 a2 g2 ^f2 e2 f2 |g2 ^f2 f2 e2 d4 c2 d2 |e2 d2 c2 B2 A2 B2 c2 A2 |B2 ^G2 E4 E4 e2 ^f2 |g6 a2 g2 ^f2 e2 f2 |g2 ^f2 f2 e2 d4 c2 d2 |e2 d2 c2 B2 B2 A2 G2 ^F2 |E8 E4 e2 ^f2 |
%W:
% voice 1 (1 lines, 52 notes)
g6 a2 g2 ^f2 e2 f2 |g2 ^f2 f2 e2 d4 c2 d2 |e2 d2 c2 B2 A2 B2 c2 A2 |B2 ^G2 E4 E4 E2 G2 |A2 ^G2 A2 B2 c2 B2 c2 d2 |e2 f2 e2 c2 d4 c2 d2 |e2 a2 ^g2 a2 e2 d2 c2 B2 |A8 A4 ||
